src/icons/billing.svg

<svg width="16" height="17" viewBox="0 0 16 17" fill="none" xmlns="http://www.w3.org/2000/svg">
<path d="M8 15C6.71442 15 5.45772 14.6188 4.3888 13.9046C3.31988 13.1903 2.48676 12.1752 1.99479 10.9874C1.50282 9.79973 1.37409 8.49279 1.6249 7.23192C1.8757 5.97104 2.49477 4.81285 3.40381 3.90381C4.31285 2.99477 5.47104 2.3757 6.73192 2.1249C7.99279 1.87409 9.29973 2.00282 10.4874 2.49479C11.6752 2.98676 12.6903 3.81988 13.4046 4.8888C14.1188 5.95772 14.5 7.21442 14.5 8.5C14.5 10.2239 13.8152 11.8772 12.5962 13.0962C11.3772 14.3152 9.72391 15 8 15ZM8 3C6.91221 3 5.84884 3.32257 4.94437 3.92692C4.0399 4.53127 3.33495 5.39025 2.91867 6.39524C2.50238 7.40024 2.39347 8.5061 2.60568 9.573C2.8179 10.6399 3.34173 11.6199 4.11092 12.3891C4.8801 13.1583 5.86011 13.6821 6.92701 13.8943C7.9939 14.1065 9.09977 13.9976 10.1048 13.5813C11.1098 13.1651 11.9687 12.4601 12.5731 11.5556C13.1774 10.6512 13.5 9.5878 13.5 8.5C13.5 7.04131 12.9205 5.64237 11.8891 4.61092C10.8576 3.57947 9.45869 3 8 3ZM9.8725 9.0525C9.78924 8.88636 9.67165 8.7398 9.5275 8.6225C9.37636 8.49996 9.20786 8.40054 9.0275 8.3275C8.84336 8.24906 8.65261 8.18715 8.4575 8.1425L8.29 8.1V6.6475C8.43751 6.67017 8.57829 6.72478 8.7025 6.8075C8.78773 6.86651 8.85868 6.94383 8.91016 7.0338C8.96164 7.12378 8.99233 7.22413 9 7.3275H9.9075C9.90647 7.04796 9.81916 6.77556 9.6575 6.5475C9.49009 6.31422 9.26298 6.13029 9 6.015C8.77559 5.91422 8.53533 5.8533 8.29 5.835V5.25H7.7775V5.845C7.53528 5.86583 7.29804 5.92577 7.075 6.0225C6.80254 6.13689 6.56591 6.32256 6.39 6.56C6.22173 6.79515 6.13403 7.07841 6.14 7.3675C6.13392 7.53173 6.16288 7.69536 6.22496 7.84753C6.28703 7.99969 6.38079 8.13689 6.5 8.25C6.79339 8.49704 7.14268 8.66868 7.5175 8.75L7.7475 8.8075V10.3475C7.6572 10.3336 7.56845 10.311 7.4825 10.28C7.33211 10.2265 7.19905 10.1332 7.0975 10.01C6.99475 9.87998 6.93608 9.72061 6.93 9.555H6C6.00353 9.86897 6.09726 10.1753 6.27 10.4375C6.44366 10.6881 6.68581 10.8834 6.9675 11C7.21486 11.0993 7.47649 11.1584 7.7425 11.175L7.75 11.75H8.29V11.175C8.56466 11.1624 8.83517 11.1032 9.09 11C9.36285 10.8884 9.59737 10.7 9.765 10.4575C9.92618 10.2169 10.0083 9.932 10 9.6425C10.0048 9.43852 9.96107 9.23632 9.8725 9.0525ZM7.6625 7.925C7.56171 7.89034 7.46525 7.84421 7.375 7.7875C7.29259 7.73593 7.22259 7.66678 7.17 7.585C7.11877 7.49983 7.09276 7.40187 7.095 7.3025C7.09427 7.17683 7.13368 7.05421 7.2075 6.9525C7.29051 6.8406 7.40305 6.75403 7.5325 6.7025C7.60849 6.67003 7.6883 6.64735 7.77 6.635V7.945C7.7275 7.945 7.695 7.9375 7.6625 7.925ZM8.9125 10.025C8.81496 10.139 8.68905 10.2252 8.5475 10.275C8.4604 10.3083 8.36983 10.3318 8.2775 10.345V8.9525C8.39 8.9875 8.4975 9.025 8.5925 9.065C8.71634 9.11487 8.82802 9.19075 8.92 9.2875C8.99941 9.38169 9.04125 9.50187 9.0375 9.625C9.04763 9.76812 9.00592 9.9101 8.92 10.025H8.9125Z" fill="#000000"/>
</svg>

<svg xmlns="http://www.w3.org/2000/svg" width="16" height="17" fill="none" viewBox="0 0 16 17"><path fill="#000" d="M8 15A6.5 6.5 0 1 1 8 2a6.5 6.5 0 0 1 0 13M8 3a5.5 5.5 0 1 0 0 11A5.5 5.5 0 0 0 8 3m1.873 6.053a1.3 1.3 0 0 0-.345-.43 2 2 0 0 0-.5-.295 3.4 3.4 0 0 0-.57-.185L8.29 8.1V6.648q.224.034.413.16a.7.7 0 0 1 .297.52h.908a1.36 1.36 0 0 0-.25-.78A1.6 1.6 0 0 0 9 6.015a2.1 2.1 0 0 0-.71-.18V5.25h-.512v.595q-.367.03-.703.178c-.272.114-.51.3-.685.537a1.34 1.34 0 0 0-.25.808 1.16 1.16 0 0 0 .36.882 2.35 2.35 0 0 0 1.018.5l.23.057v1.54a1.4 1.4 0 0 1-.266-.067.9.9 0 0 1-.385-.27.78.78 0 0 1-.167-.455H6c.004.314.097.62.27.883.174.25.416.445.698.562.247.1.508.158.774.175l.008.575h.54v-.575c.275-.013.545-.072.8-.175.273-.112.507-.3.675-.543.161-.24.243-.525.235-.815a1.3 1.3 0 0 0-.127-.59m-2.21-1.128a1.4 1.4 0 0 1-.288-.138.7.7 0 0 1-.205-.202.59.59 0 0 1 .037-.633.75.75 0 0 1 .325-.25 1 1 0 0 1 .238-.067v1.31a.3.3 0 0 1-.107-.02m1.25 2.1a.85.85 0 0 1-.366.25 1.3 1.3 0 0 1-.27.07V8.953q.17.052.316.112c.123.05.235.126.327.223a.5.5 0 0 1 .117.337.6.6 0 0 1-.117.4z"/></svg>
